X: 19167
T: Is Breá An Cailín Í
R: waltz
M: 3/4
K: Bminor
BA|F2B2Bc|d2B2c2|d2f2ec|B2BcdB|c2BcBA|F4||
Ad|f2g2fe|d2f2a2|b2B2Bc|d2B2cd|f2cdcB|B4||
df|a2f2g2|f3g fe|d2B2AB|d3e fg|a2f2a2|b4||
ag|f3g fe|d2e2f2|B2A2FA|d2B2cd|f2cdcB|B4||

